apps/main/src/modules/strategies/hdcl/assets/decentral-logo.svg

<svg width="133" height="133" viewBox="0 0 133 133" fill="none" xmlns="http://www.w3.org/2000/svg">
<circle cx="66.3876" cy="66.3876" r="66.3876" fill="black"/>
<path d="M67.4736 43.5332C77.4956 43.5332 86.471 45.0898 92.8613 47.5332C96.0639 48.7577 98.5062 50.163 100.109 51.6123C101.712 53.0615 102.3 54.3808 102.3 55.5049C102.3 56.629 101.713 57.9482 100.109 59.3975C98.5062 60.8467 96.0639 62.2511 92.8613 63.4756C86.471 65.919 77.4957 67.4766 67.4736 67.4766C57.4516 67.4766 48.4763 65.919 42.0859 63.4756C38.8834 62.2511 36.4411 60.8467 34.8379 59.3975C33.2348 57.9482 32.6476 56.629 32.6475 55.5049C32.6475 54.3808 33.2348 53.0615 34.8379 51.6123C36.4411 50.163 38.8833 48.7577 42.0859 47.5332C48.4763 45.0898 57.4516 43.5332 67.4736 43.5332Z" stroke="white" stroke-width="4.35328"/>
<path d="M67.4736 56.5928C77.4956 56.5928 86.471 58.1494 92.8613 60.5928C96.0639 61.8173 98.5062 63.2226 100.109 64.6719C101.712 66.1211 102.3 67.4403 102.3 68.5645C102.3 69.6886 101.713 71.0078 100.109 72.457C98.5062 73.9063 96.0639 75.3106 92.8613 76.5352C86.471 78.9785 77.4957 80.5361 67.4736 80.5361C57.4516 80.5361 48.4763 78.9785 42.0859 76.5352C38.8834 75.3106 36.4411 73.9063 34.8379 72.457C33.2348 71.0078 32.6476 69.6886 32.6475 68.5645C32.6475 67.4403 33.2348 66.1211 34.8379 64.6719C36.4411 63.2226 38.8833 61.8173 42.0859 60.5928C48.4763 58.1494 57.4516 56.5928 67.4736 56.5928Z" stroke="white" stroke-width="4.35328"/>
<path d="M67.4736 67.4756C77.4956 67.4756 86.471 69.0322 92.8613 71.4756C96.0639 72.7001 98.5062 74.1054 100.109 75.5547C101.712 77.0039 102.3 78.3231 102.3 79.4473C102.3 80.5714 101.713 81.8906 100.109 83.3398C98.5062 84.7891 96.0639 86.1935 92.8613 87.418C86.471 89.8613 77.4957 91.4189 67.4736 91.4189C57.4516 91.4189 48.4763 89.8613 42.0859 87.418C38.8834 86.1935 36.4411 84.7891 34.8379 83.3398C33.2348 81.8906 32.6476 80.5714 32.6475 79.4473C32.6475 78.3231 33.2348 77.0039 34.8379 75.5547C36.4411 74.1054 38.8833 72.7001 42.0859 71.4756C48.4763 69.0322 57.4516 67.4756 67.4736 67.4756Z" stroke="white" stroke-width="4.35328"/>
</svg>

<svg xmlns="http://www.w3.org/2000/svg" width="48" height="48" viewBox="0 0 133 133" fill="none">
  <circle cx="66.388" cy="66.388" r="66.388" fill="#000"/>
  <path stroke="#fff" stroke-width="4.353" d="M67.474 43.533c10.022 0 18.997 1.557 25.387 4 3.203 1.225 5.645 2.63 7.248 4.08 1.603 1.449 2.191 2.768 2.191 3.892s-.587 2.443-2.191 3.892c-1.603 1.45-4.045 2.854-7.248 4.079-6.39 2.443-15.365 4-25.387 4s-18.998-1.557-25.388-4c-3.203-1.225-5.645-2.63-7.248-4.078-1.603-1.45-2.19-2.769-2.19-3.893s.587-2.443 2.19-3.893 4.045-2.854 7.248-4.079c6.39-2.443 15.366-4 25.388-4Z"/>
  <path stroke="#fff" stroke-width="4.353" d="M67.474 56.593c10.022 0 18.997 1.556 25.387 4 3.203 1.224 5.645 2.63 7.248 4.079 1.603 1.45 2.191 2.768 2.191 3.892s-.587 2.444-2.191 3.893c-1.603 1.45-4.045 2.854-7.248 4.078-6.39 2.444-15.365 4.001-25.387 4.001s-18.998-1.558-25.388-4c-3.203-1.225-5.645-2.63-7.248-4.079-1.603-1.45-2.19-2.768-2.19-3.892s.587-2.444 2.19-3.893c1.603-1.45 4.045-2.855 7.248-4.08 6.39-2.443 15.366-4 25.388-4Z"/>
  <path stroke="#fff" stroke-width="4.353" d="M67.474 67.476c10.022 0 18.997 1.556 25.387 4 3.203 1.224 5.645 2.63 7.248 4.079s2.191 2.768 2.191 3.892-.587 2.444-2.191 3.893c-1.603 1.45-4.045 2.853-7.248 4.078-6.39 2.443-15.365 4-25.387 4s-18.998-1.557-25.388-4c-3.203-1.225-5.645-2.629-7.248-4.078s-2.19-2.769-2.19-3.893.587-2.443 2.19-3.892c1.603-1.45 4.045-2.855 7.248-4.08 6.39-2.443 15.366-4 25.388-4Z"/>
</svg>
